X: 59
T: Missa Quinti toni / Gloria
N: Derived from Ock1012b-Missa_Quinti_toni-Gloria.krn
C: Johannes Ockeghem
%%abc-version 2.0
%%abcx-abcm2ps-target-version 5.9.1 (29 Sep 2008)
%%abc-creator hum2abc beta
%%abcx-conversion-date 2019/02/17 07:26:15
%%abc-edited-by Jesse Rodin
%%abc-edited-by Chris Gage 08-06-2012
%%abcx-initial-encoding-date 2012/08/09/
%%humdrum-veritas 3972272173
%%humdrum-veritas-data 3940031283
%%linebreak <none>
%%barnumbers 0
L: 1/4
M: 4/2
Q: 1/2=120
V: 1 clef=treble
V: 2 clef=treble-8
V: 3 clef=bass
K: Bb
[V:1] F8 | 
[V:2] F8 | 
[V:3] F,4D,4 | 
[V:1] D4G2F2 | 
[V:2] F4B2A2 | 
[V:3] B,,4z2F,2 | 
[V:1] G2=E2F4 | 
[V:2] B2c2A4 | 
[V:3] E,2C,2D,4 | 
[V:1] G8 | 
[V:2] G4z2G2 | 
[V:3] z2C,2E,2E,2 | 
[V:1] z2D2F2F2 | 
[V:2] B2B2F4 | 
[V:3] B,,4z2F,,2 | 
[V:1] B,4C2B,2 | 
[V:2] z2B2A2B2- | 
[V:3] G,,4F,,2G,,2- | 
[V:1] D3=EF3_E | 
[V:2] BAF4B2 | 
[V:3] G,,A,,B,,3C,D,E, | 
[V:1] C2B,2E2D2 | 
[V:2] A2B2c2B2- | 
[V:3] F,2B,,2z2B,,2 | 
[V:1] C4B,4- | 
[V:2] B2A2B4 | 
[V:3] F,,4B,,4 | 
[V:1] B,4z2F2 | 
[V:2] z2B2A2A2 | 
[V:3] G,,4F,,2F,2- | 
[V:1] G2G2A3F | 
[V:2] G4F2c2- | 
[V:3] F,D,E,2F,3E, | 
[V:1] G2F4B2 | 
[V:2] c2A2B2G2 | 
[V:3] C,2D,2B,,4 | 
[V:1] A2F2G2=E2 | 
[V:2] F4c4 | 
[V:3] z2D,2C,4 | 
[V:1] D4C2=E2- | 
[V:2] d3cA2G2 | 
[V:3] B,,4C,4- | 
[V:1] E2C2D4 | 
[V:2] c2c4=B2 | 
[V:3] C,4z2G,2 | 
[V:1] C2A,4F,2 | 
[V:2] c4F4 | 
[V:3] A,2F,4D,2 | 
[V:1] G,2F,2A,3B, | 
[V:2] =E2F3=EF2 | 
[V:3] C,2z2F,,3G,, | 
[V:1] C2D2C2F2- | 
[V:2] =E2F2=E2F2 | 
[V:3] A,,2F,,2z2F,,2 | 
[V:1] F2=E2F4 | 
[V:2] G4F4 | 
[V:3] C,4D,4 | 
[V:1] z4A4 | 
[V:2] c4c2c2 | 
[V:3] C,4F,4- | 
[V:1] A2A2A2A2 | 
[V:2] c2c2c4 | 
[V:3] F,4z4 | 
[V:1] B4A2G2 | 
[V:2] d4c2B2- | 
[V:3] B,,4F,,2G,,2 | 
[V:1] F2G4=E2 | 
[V:2] BAB3GA2 | 
[V:3] B,,4C,4 | 
[V:1] D4z2F2- | 
[V:2] B4d4 | 
[V:3] B,,4B,,4- | 
[V:1] F2F2F2F2 | 
[V:2] d4d2d2 | 
[V:3] B,,4z2D,2 | 
[V:1] G2G2A4 | 
[V:2] =e2=e2f4 | 
[V:3] C,2C,2z2F,,2 | 
[V:1] G2F4B2- | 
[V:2] e2c2B4 | 
[V:3] G,,2A,,2B,,4 | 
[V:1] BA/B/c3BAG | 
[V:2] e4f4 | 
[V:3] G,,2A,,2F,,2F,2- | 
[V:1] F2G2F2B2- | 
[V:2] d2e4d2 | 
[V:3] F,D,C,2A,,2B,,2 | 
[V:1] B2A2G3F/E/ | 
[V:2] c4B4- | 
[V:3] F,,4G,,4 | 
[V:1] D4A4 | 
[V:2] B2AGF4 | 
[V:3] B,,3C,D,4 | 
[V:1] B2c3BAG | 
[V:2] G2A3Bc2- | 
[V:3] z4F,4- | 
[V:1] A2G4^F2 | 
[V:2] c2G2A4 | 
[V:3] F,2E,2D,4 | 
[V:1] G6A2- | 
[V:2] G4d4 | 
[V:3] z2G,4F,2 | 
[V:1] AFF2F4 | 
[V:2] d2d4B2 | 
[V:3] D,8- | 
[V:1] F4F4 | 
[V:2] A4z2A2 | 
[V:3] D,8- | 
[V:1] F8 | 
[V:2] B2A2B3c | 
[V:3] D,8 | 
[V:1] z2F2G2F2 | 
[V:2] A4G2B2- | 
[V:3] z2D,2E,2D,2 | 
[V:1] G2=E2F4 | 
[V:2] B2c2A4 | 
[V:3] E,2C,2D,4 | 
[V:1] G3FD4 | 
[V:2] G2B3cd2- | 
[V:3] G,,4G,,2B,,2- | 
[V:1] F3GA3B | 
[V:2] d=ef3edc/B/ | 
[V:3] B,,C,D,3E,F,2- | 
[V:1] c3BAGA2 | 
[V:2] A2G2F2c2 | 
[V:3] F,2C,2D,2A,,2 | 
[V:1] D3CD2B,2 | 
[V:2] B2G2A2G2- | 
[V:3] B,,3A,,/G,,/F,,2G,,2 | 
[V:1] A,4G,4- | 
[V:2] G2^F2G4 | 
[V:3] D,4G,,4 | 
[V:1] G,4z4 | 
[V:2] B4B2B2 | 
[V:3] z2G,,2D,4 | 
[V:1] z4F4 | 
[V:2] c4d4 | 
[V:3] E,4D,4- | 
[V:1] F2F2G4 | 
[V:2] z2d2e4 | 
[V:3] D,4C,4 | 
[V:1] F4z2B2 | 
[V:2] d2B3AG2 | 
[V:3] D,4B,,C,D,E, | 
[V:1] A2F2G2F2- | 
[V:2] F4z2B2 | 
[V:3] F,2D,2B,,4 | 
[V:1] F2F2B2A2 | 
[V:2] A2F2G2F2- | 
[V:3] F,2D,2E,2F,2 | 
[V:1] c3BG2F2 | 
[V:2] F2F2B2A2 | 
[V:3] F,,2z2G,,2D,2 | 
[V:1] =E2G3FD2 | 
[V:2] c3BG2F2 | 
[V:3] C,3E,2D,2B,, | 
[V:1] E2D2F2D2 | 
[V:2] E2B2A2B2- | 
[V:3] C,2B,,2z2B,,2 | 
[V:1] C3A,G,2F,2 | 
[V:2] B2A2B2f2 | 
[V:3] E,2F,2E,2D,2- | 
[V:1] B,2C2D2B,2 | 
[V:2] d2=e2f4 | 
[V:3] D,2C,2B,,2D,2- | 
[V:1] D2=E2F4 | 
[V:2] B2c2d2B2- | 
[V:3] D,2C,2B,,4 | 
[V:1] B,2C2D2B,2- | 
[V:2] B2A2B4 | 
[V:3] G,,2F,,2B,,2zB,,- | 
[V:1] B,2A,2B,4- | 
[V:2] G2F2z2f2- | 
[V:3] B,,C,D,2B,,3C, | 
[V:1] B,4z2F2- | 
[V:2] f=eg2f2d2- | 
[V:3] D,2E,2D,4- | 
[V:1] F=EG2F2D2- | 
[V:2] d2e2d4 | 
[V:3] D,2C,2D,2B,,2- | 
[V:1] D2E2D4 | 
[V:2] B2c2d2B2- | 
[V:3] B,,2A,,2B,,2G,,2- | 
[V:1] B,2C2D2B,2- | 
[V:2] B2A2B2cd- | 
[V:3] G,,2F,,2B,,4 | 
[V:1] B,CD2=E2F2 | 
[V:2] d=ef2z2F2 | 
[V:3] D,4C,2D,2 | 
[V:1] z2F2G2A2 | 
[V:2] G2A2B2c2 | 
[V:3] E,2F,2E,2C,2 | 
[V:1] B3Ac2A2 | 
[V:2] d2=e2f4 | 
[V:3] B,,2G,,2F,,4 | 
[V:1] B2G2F2z2 | 
[V:2] z2e2dd2B | 
[V:3] B,,2C,2D,4 | 
[V:1] F2G3F/=E/D2 | 
[V:2] A2G2B4 | 
[V:3] z2E,3F,G,2 | 
[V:1] C2F4F2- | 
[V:2] c2A2d3c | 
[V:3] C,2D,3B,,2A,, | 
[V:1] F=EDCC2z2 | 
[V:2] AGB2c2F2- | 
[V:3] C,2G,,2C,2D,2 | 
[V:1] A3GG2F2 | 
[V:2] F2c4d2- | 
[V:3] F,4E,2D,2 | 
[V:1] B2AFG2FD- | 
[V:2] dcd2=e2f2 | 
[V:3] G,2F,D,C,2D,2 | 
[V:1] DC/B,/A,2G,2C2- | 
[V:2] F4=E4 | 
[V:3] B,,2F,,2C,4 | 
[V:1] C2D2C2F2 | 
[V:2] F4A4 | 
[V:3] F,,2F,4D,2 | 
[V:1] G2B2A2F2 | 
[V:2] G4c3A | 
[V:3] E,2G,2F,4 | 
[V:1] G2F4=E2 | 
[V:2] B2F2G4 | 
[V:3] E,2D,2C,4 | 
[V:1] F8 ||  
[V:2] F8 ||  
[V:3] F,,8 ||  
[V:1]  [K:Bb] [K:clef=treble][M:4/2]A8 | 
[V:2]  [K:Bb] [K:clef=treble-8][M:4/2]c8 | 
[V:3]  [K:Bb] [K:clef=bass][M:4/2]F,8 | 
[V:1] A4A4 | 
[V:2] c4c4 | 
[V:3] F,4F,4 | 
[V:1] F4B4- | 
[V:2] d8 | 
[V:3] B,,8 | 
[V:1] B4A4- | 
[V:2] d4c4 | 
[V:3] z4F,4 | 
[V:1] A4G4 | 
[V:2] B8 | 
[V:3] D,4E,4 | 
[V:1] A4A4 | 
[V:2] A4F4 | 
[V:3] F,4D,4 | 
[V:1] A4A4 | 
[V:2] c4c4 | 
[V:3] C,4F,4 | 
[V:1] G2F4ED | 
[V:2] B4B4 | 
[V:3] B,,3C,D,2E,2 | 
[V:1] C8 | 
[V:2] A4A4 | 
[V:3] F,6E,D, | 
[V:1] z4A4 | 
[V:2] A4A4 | 
[V:3] C,4F,4- | 
[V:1] A4A4 | 
[V:2] c4c4 | 
[V:3] F,4F,,4 | 
[V:1] c4c4 | 
[V:2] F8 | 
[V:3] z4A,,4 | 
[V:1] B4B4 | 
[V:2] G8 | 
[V:3] G,,8 | 
[V:1] A4D4- | 
[V:2] F8 | 
[V:3] D,8 | 
[V:1] D4D4 | 
[V:2] B4B4 | 
[V:3] G,8 | 
[V:1] =E4E4 | 
[V:2] G4A4 | 
[V:3] C,8 | 
[V:1] D4G4 | 
[V:2] B4E4 | 
[V:3] B,,4C,4 | 
[V:1] G4F2D2 | 
[V:2] B4B4- | 
[V:3] G,,4z4 | 
[V:1] E4D4- | 
[V:2] B4A2F2 | 
[V:3] G,4D,4 | 
[V:1] D4C4 | 
[V:2] G8 | 
[V:3] E,8 | 
[V:1] D4z4 | 
[V:2] A4d4 | 
[V:3] D,8 | 
[V:1] A4A4 | 
[V:2] d4c2d2- | 
[V:3] z8 | 
[V:1] B2A4GF | 
[V:2] d2cBA4 | 
[V:3] D,4F,4 | 
[V:1] =E4C4 | 
[V:2] G4A4 | 
[V:3] C,4z2F,2- | 
[V:1] D4=E4 | 
[V:2] B4c4 | 
[V:3] F,2D,2C,4 | 
[V:1] F4G4 | 
[V:2] F2A2B2c2- | 
[V:3] D,2F,2E,2C,2- | 
[V:1] C4C2A,2 | 
[V:2] cBAGF3A | 
[V:3] C,2F,4F,,2 | 
[V:1] B,2C3B,A,G, | 
[V:2] G2F2A2B2 | 
[V:3] G,,2A,,2F,,2z2 | 
[V:1] F,2A,2G,2F,2 | 
[V:2] c2F2=E2F2 | 
[V:3] F,,4C,2D,2 | 
[V:1] A,2B,2C2D2 | 
[V:2] c2d2=e2f2 | 
[V:3] F,3D,C,2z2 | 
[V:1] =E2F2G2A2 | 
[V:2] c2d2=e2f2- | 
[V:3] C,2B,,2G,,2F,,2 | 
[V:1] BAGF=E4 | 
[V:2] f2g2c4 | 
[V:3] B,,4z2C,2 | 
[V:1] F2G2F2D2 | 
[V:2] z2c2A2B2 | 
[V:3] F,2E,2F,2G,2 | 
[V:1] =E4C4 | 
[V:2] c4F4 | 
[V:3] C,4A,,4 | 
[V:1] z4C4 | 
[V:2] G4_A4 | 
[V:3] G,,4C,4 | 
[V:1] D4=E4 | 
[V:2] G4c4 | 
[V:3] =B,,4z2C,2 | 
[V:1] D4G4 | 
[V:2] B2G4c2- | 
[V:3] G,4C,4- | 
[V:1] =E2F4E2 | 
[V:2] c2d4c2- | 
[V:3] C,2B,,4C,2 | 
[V:1] D4C4 | 
[V:2] c2=B2c4- | 
[V:3] G,,4C,4 | 
[V:1] z4A4- | 
[V:2] c2A4F2 | 
[V:3] F,6D,2 | 
[V:1] A4A4 | 
[V:2] F4z4 | 
[V:3] D,4C,4 | 
[V:1] A4B4 | 
[V:2] c4B2d2- | 
[V:3] F,4z4 | 
[V:1] B4A4 | 
[V:2] d2=e2f4 | 
[V:3] G,4F,4 | 
[V:1] F4G4 | 
[V:2] z4=e4 | 
[V:3] D,4C,4 | 
[V:1] A4B4 | 
[V:2] f4d4 | 
[V:3] F,4G,4 | 
[V:1] c6A2 | 
[V:2] c2A4F2 | 
[V:3] A,4F,4 | 
[V:1] A4G2A2 | 
[V:2] F4c4 | 
[V:3] z2D,2E,2F,2- | 
[V:1] B2c4F2 | 
[V:2] d2c2A4 | 
[V:3] F,G,A,4F,2 | 
[V:1] GF=EDC4 | 
[V:2] B4A4- | 
[V:3] D,2E,2F,4 | 
[V:1] F4G4 | 
[V:2] A2B4A2 | 
[V:3] D,4z4 | 
[V:1] B8 | 
[V:2] G4G4 | 
[V:3] G,,8 | 
[V:1] A8 | 
[V:2] F8 | 
[V:3] D,6B,,2 | 
[V:1] z8 | 
[V:2] =E4=E4 | 
[V:3] C,4C,4 | 
[V:1] A8 | 
[V:2] F4c4 | 
[V:3] F,,8 | 
[V:1] F4F4 | 
[V:2] d4d4 | 
[V:3] z8 | 
[V:1] G4G4 | 
[V:2] =e4=e4 | 
[V:3] C,8 | 
[V:1] A4G2A2- | 
[V:2] f2d2=e2f2- | 
[V:3] F,,4G,,2F,,2 | 
[V:1] ABc4=B2 | 
[V:2] f=ec2d2z2 | 
[V:3] A,,4G,,4 | 
[V:1] c8 | 
[V:2] c4F4 | 
[V:3] z2C,3B,,A,,2 | 
[V:1] z4c4 | 
[V:2] G4A4- | 
[V:3] B,,2G,,2F,,2F,2- | 
[V:1] F4G4 | 
[V:2] A4B4 | 
[V:3] F,2D,2G,4 | 
[V:1] A6B2- | 
[V:2] A4d4- | 
[V:3] F,6G,2- | 
[V:1] B4A4 | 
[V:2] d4c2d2 | 
[V:3] G,4A,2F,2 | 
[V:1] c3BG4 | 
[V:2] =e2f4=e2 | 
[V:3] z2F,2C,4 | 
[V:1] F4z2F2 | 
[V:2] f4=e2d2 | 
[V:3] D,3C,A,,2B,,2 | 
[V:1] =E2D2F4 | 
[V:2] c2f4d2 | 
[V:3] C,2D,4B,,2 | 
[V:1] =E2C2D2CD | 
[V:2] c4B4 | 
[V:3] C,2A,,2G,,4 | 
[V:1] =E4C2D2- | 
[V:2] c4A2B2 | 
[V:3] z2C,4G,,2 | 
[V:1] D2B,2A,2G,A, | 
[V:2] G4F4 | 
[V:3] B,,3C,D,4 | 
[V:1] B,2F,2G,4 | 
[V:2] z2F4=E2 | 
[V:3] B,,4z2C,2 | 
[V:1] F,2A,2G,2C2- | 
[V:2] F4=E4 | 
[V:3] D,2F,2C,4 | 
[V:1] C2A,2B,2z2 | 
[V:2] F2A2G2c2- | 
[V:3] F,,4G,,2A,,2- | 
[V:1] C2D2C2F2- | 
[V:2] cAB2c2z2 | 
[V:3] A,,2G,,2C,2A,,2 | 
[V:1] F2D2=E2z2 | 
[V:2] B2d2c2f2- | 
[V:3] B,,4C,2D,2- | 
[V:1] F2A2G2c2- | 
[V:2] f2d2=e4 | 
[V:3] D,2F,2C,4 | 
[V:1] c2A2B4 | 
[V:2] f2c2d4 | 
[V:3] A,,4G,,4 | 
[V:1] c2A4F2 | 
[V:2] c4A3B | 
[V:3] z2C,2D,4 | 
[V:1] =E2F2G2F2- | 
[V:2] c2B4A2 | 
[V:3] C,2D,2E,2F,2 | 
[V:1] F=E/D/E2A,4 | 
[V:2] G4F4 | 
[V:3] C,4F,,2A,,2 | 
[V:1] B,2C2A,4 | 
[V:2] G2A4c2 | 
[V:3] G,,2z2D,2C,2 | 
[V:1] D2C2F3G | 
[V:2] B2A4d2- | 
[V:3] D,2F,4B,,2 | 
[V:1] A3GB3A | 
[V:2] dcc2d2c2- | 
[V:3] A,,2C,2B,,2F,2- | 
[V:1] GFF4=E2 | 
[V:2] c2A2G4 | 
[V:3] F,2F,,2C,4 | 
[V:1] F8 |]  
[V:2] F8 |]  
[V:3] F,,8 |]  



